X: 1
T:Pybcorn: Can Scoswas
M:2/4
L:1/8
R:polka
Z:bil@blueskiesink.com
K:G
G>B d>B|A>F D>D|E>G B>G|F>D B,>B,|!
E>G B>e|d>B G>A|B>c A>B|G3 D:|!
d>B G>B|A2 A>A|B>G E>G|F3 F|!
E>G B>e|d>B B>A|B>E E>D|E3 z:|!
